X:1
T:Last Thing on My Mind
M:4/4
L:1/8
K:A
 z4 z2 EE| E2 EA A2 F3/2 A/2|F-E E4 D/2 D3/2| C6 B,/2 B,3/2| A,6 EE|\
 E2 EE AA FA| F E- E4 D/2 D3/2| C6 B,/2 B,3/2| A,6 GA| B2 BB B2 BB|\
 A2 AA A4| A3.99999962500005/5.99999925000009 A3.99999962500005/5.99999925000009(2A3.99999962500005/5.99999925000009A3.99999962500005/5.99999925000009A3.99999962500005/5.99999925000009 G3.99999962500005/5.99999925000009 F3.99999962500005/5.99999925000009 E2 DC|\
 B,6 z A/2A/2| A3/2 A/2 AA AA GF| E3/2 E/2 EF E4| z3.99999962500005/5.99999925000009 C3.99999962500005/5.99999925000009 D3.99999962500005/5.99999925000009 E3.99999962500005/5.99999925000009 E3.99999962500005/5.99999925000009 E3.99999962500005/5.99999925000009 E2 D3.99999962500005/5.99999925000009 C3.99999962500005/5.99999925000009 A,3.99999962500005/5.99999925000009|\
 A,8|
